app/assets/images/icons/active/u-bahn.svg

<?xml version="1.0" encoding="UTF-8" standalone="no"?>
<svg width="32px" height="232px" viewBox="0 0 32 232" version="1.1" xmlns="http://www.w3.org/2000/svg" xmlns:xlink="http://www.w3.org/1999/xlink" xmlns:sketch="http://www.bohemiancoding.com/sketch/ns">
    <title>u-bahn</title>
    <description>Created with Sketch (http://www.bohemiancoding.com/sketch)</description>
    <defs></defs>
    <g id="Transport" stroke="none" stroke-width="1" fill="none" fill-rule="evenodd" sketch:type="MSPage">
        <path d="M22.8355596,146.406 C20.8784659,148.207 18.1077717,149 15.4645821,149 C12.8365715,149 10.0668893,148.217 8.12598664,146.406 C6.28830196,144.692 5.5,142.36 5.5,139.901 L5.5,124 L11.3520542,124 L11.3520542,139.331 C11.3520542,140.592 11.5878365,142.033 12.4449504,143.037 C13.1897389,143.895 14.3757337,144.117 15.4645821,144.117 C16.6100992,144.117 17.8638939,143.868 18.5763003,142.909 C19.3382918,141.901 19.5538353,140.555 19.5538353,139.331 L19.5538353,124 L25.5,124 L25.5,139.901 C25.5,142.366 24.6823518,144.694 22.8355596,146.406 Z M22.8355596,146.406" id="u-bahn--white" fill="#206FAC" sketch:type="MSShapeGroup"></path>
        <path d="M22.8355596,106.406 C20.8784659,108.207 18.1077717,109 15.4645821,109 C12.8365715,109 10.0668893,108.217 8.12598664,106.406 C6.28830196,104.692 5.5,102.36 5.5,99.901 L5.5,84 L11.3520542,84 L11.3520542,99.331 C11.3520542,100.592 11.5878365,102.033 12.4449504,103.037 C13.1897389,103.895 14.3757337,104.117 15.4645821,104.117 C16.6100992,104.117 17.8638939,103.868 18.5763003,102.909 C19.3382918,101.901 19.5538353,100.555 19.5538353,99.331 L19.5538353,84 L25.5,84 L25.5,99.901 C25.5,102.366 24.6823518,104.694 22.8355596,106.406 Z M22.8355596,106.406" id="u-bahn--subdued-grey" fill="#FFFFFF" sketch:type="MSShapeGroup"></path>
        <path d="M22.8355596,66.406 C20.8784659,68.207 18.1077717,69 15.4645821,69 C12.8365715,69 10.0668893,68.217 8.12598664,66.406 C6.28830196,64.692 5.5,62.36 5.5,59.901 L5.5,44 L11.3520542,44 L11.3520542,59.331 C11.3520542,60.592 11.5878365,62.033 12.4449504,63.037 C13.1897389,63.895 14.3757337,64.117 15.4645821,64.117 C16.6100992,64.117 17.8638939,63.868 18.5763003,62.909 C19.3382918,61.901 19.5538353,60.555 19.5538353,59.331 L19.5538353,44 L25.5,44 L25.5,59.901 C25.5,62.366 24.6823518,64.694 22.8355596,66.406 Z M22.8355596,66.406" id="u-bahn--body-grey" fill="#67737B" sketch:type="MSShapeGroup"></path>
        <path d="M22.8355596,26.406 C20.8784659,28.207 18.1077717,29 15.4645821,29 C12.8365715,29 10.0668893,28.217 8.12598664,26.406 C6.28830196,24.692 5.5,22.36 5.5,19.901 L5.5,4 L11.3520542,4 L11.3520542,19.331 C11.3520542,20.592 11.5878365,22.033 12.4449504,23.037 C13.1897389,23.895 14.3757337,24.117 15.4645821,24.117 C16.6100992,24.117 17.8638939,23.868 18.5763003,22.909 C19.3382918,21.901 19.5538353,20.555 19.5538353,19.331 L19.5538353,4 L25.5,4 L25.5,19.901 C25.5,22.366 24.6823518,24.694 22.8355596,26.406 Z M22.8355596,26.406" id="u-bahn--title-grey" fill="#3A434E" sketch:type="MSShapeGroup"></path>
    </g>
</svg>

<svg width="32" height="232" viewBox="0 0 32 232" xmlns="http://www.w3.org/2000/svg" xmlns:sketch="http://www.bohemiancoding.com/sketch/ns"><title>u-bahn</title><g sketch:type="MSPage" fill="none"><path d="M22.836 146.406c-1.957 1.801-4.728 2.594-7.371 2.594-2.628 0-5.398-.783-7.339-2.594-1.838-1.714-2.626-4.046-2.626-6.505v-15.901h5.852v15.331c0 1.261.236 2.702 1.093 3.706.745.858 1.931 1.08 3.02 1.08 1.146 0 2.399-.249 3.112-1.208.762-1.008.978-2.354.978-3.578v-15.331h5.946v15.901c0 2.465-.818 4.793-2.664 6.505zm0 0" fill="#206FAC" sketch:type="MSShapeGroup"/><path d="M22.836 106.406c-1.957 1.801-4.728 2.594-7.371 2.594-2.628 0-5.398-.783-7.339-2.594-1.838-1.714-2.626-4.046-2.626-6.505v-15.901h5.852v15.331c0 1.261.236 2.702 1.093 3.706.745.858 1.931 1.08 3.02 1.08 1.146 0 2.399-.249 3.112-1.208.762-1.008.978-2.354.978-3.578v-15.331h5.946v15.901c0 2.465-.818 4.793-2.664 6.505zm0 0" fill="#fff" sketch:type="MSShapeGroup"/><path d="M22.836 66.406c-1.957 1.801-4.728 2.594-7.371 2.594-2.628 0-5.398-.783-7.339-2.594-1.838-1.714-2.626-4.046-2.626-6.505v-15.901h5.852v15.331c0 1.261.236 2.702 1.093 3.706.745.858 1.931 1.08 3.02 1.08 1.146 0 2.399-.249 3.112-1.208.762-1.008.978-2.354.978-3.578v-15.331h5.946v15.901c0 2.465-.818 4.793-2.664 6.505zm0 0" fill="#67737B" sketch:type="MSShapeGroup"/><path d="M22.836 26.406c-1.957 1.801-4.728 2.594-7.371 2.594-2.628 0-5.398-.783-7.339-2.594-1.838-1.714-2.626-4.046-2.626-6.505v-15.901h5.852v15.331c0 1.261.236 2.702 1.093 3.706.745.858 1.931 1.08 3.02 1.08 1.146 0 2.399-.249 3.112-1.208.762-1.008.978-2.354.978-3.578v-15.331h5.946v15.901c0 2.465-.818 4.793-2.664 6.505zm0 0" fill="#3A434E" sketch:type="MSShapeGroup"/></g></svg>
